build/assets/img/svg/icon-youtube.svg

<svg width="60" height="60" viewBox="0 0 60 60" fill="none" xmlns="http://www.w3.org/2000/svg">
<rect width="60" height="60" rx="10" fill="#A62E41"/>
<path fill-rule="evenodd" clip-rule="evenodd" d="M48.62 21.8548C48.62 21.8548 48.2483 19.1955 47.1095 18.0247C45.6643 16.4871 44.0446 16.4799 43.3024 16.3907C37.9847 16 30.0083 16 30.0083 16H29.9917C29.9917 16 22.0153 16 16.6976 16.3907C15.9542 16.4799 14.3357 16.4871 12.8893 18.0247C11.7505 19.1958 11.38 21.8548 11.38 21.8548C11.38 21.8548 11 24.9785 11 28.1006V31.0288C11 34.1521 11.38 37.2746 11.38 37.2746C11.38 37.2746 11.7505 39.9339 12.8893 41.1047C14.3357 42.6423 16.2345 42.5941 17.08 42.7546C20.12 43.0512 30 43.1429 30 43.1429C30 43.1429 37.9847 43.1309 43.3024 42.7402C44.0446 42.6498 45.6643 42.6426 47.1095 41.105C48.2483 39.9339 48.62 37.2749 48.62 37.2749C48.62 37.2749 49 34.1524 49 31.0288V28.1006C49 24.9785 48.62 21.8548 48.62 21.8548ZM26.0765 34.5769L26.0753 23.734L36.3424 29.1742L26.0765 34.5769Z" fill="white"/>
</svg>

<svg width="60" height="60" fill="none" xmlns="http://www.w3.org/2000/svg"><rect width="60" height="60" rx="10" fill="#A62E41"/><path fill-rule="evenodd" clip-rule="evenodd" d="M48.62 21.855s-.372-2.66-1.51-3.83c-1.446-1.538-3.065-1.545-3.808-1.634C37.985 16 30.008 16 30.008 16h-.016s-7.977 0-13.294.39c-.744.09-2.362.097-3.809 1.635-1.138 1.17-1.509 3.83-1.509 3.83S11 24.978 11 28.1v2.928c0 3.123.38 6.246.38 6.246s.37 2.659 1.51 3.83c1.446 1.537 3.345 1.49 4.19 1.65 3.04.296 12.92.388 12.92.388s7.985-.012 13.302-.403c.743-.09 2.362-.097 3.807-1.635 1.14-1.171 1.511-3.83 1.511-3.83s.38-3.123.38-6.246V28.1c0-3.122-.38-6.246-.38-6.246zM26.077 34.577l-.002-10.843 10.267 5.44-10.265 5.403z" fill="#fff"/></svg>
